X:978
T:the Orange Rogue   #2
R:jig; long dance, set dance
%S: s:4 b:24(4+4+4+4)
B:Francis O'Neill: "The Dance Music of Ireland" (1907) #978
Z:Frank Nordberg - http://www.musicaviva.com
F:http://www.musicaviva.com/abc/tunes/ireland/oneill-1001/0978/oneill-1001-0978-1.abc
P: Play AA BA or AA BA BA, as needed by the dance.
M:6/8
L:1/8
K:Em
"^A"[|]d !segno!\
| (e/f/g)(e d)B(A | G)EF G2A | BAB def | (g2b) agf ||
| (e/f/g)(e d)B(A | G)EF G2(A | B)AB dcd | e3 "^fine"e2 :|
"^B"|: f \
| (g2e) (a2f) | g2B (Bc)d | g2(e a)gf | Tg3 (B2d) ||
| (g2e) (a2f) | g2(e f)ed | (BA)(B d)ef | g2(b a)g!segno!f |]
% "^A"|| f \
% | (e/f/g)(e d)B(A | G)EF G2A | (BA)(B d)ef | g2(b a)gf \
% | (e/f/g)(e d)BA | GEF G2A | (BA)(B d)c(d | e3)e2 :|
